dist/svg/u1F63B.svg

<?xml version="1.0" encoding="UTF-8"?><svg id="Layer_1" xmlns="http://www.w3.org/2000/svg" viewBox="0 0 40 40"><g><g><path id="SVGID" d="M26.56156,4.83946c-.6036-.53633-1.54692-.36313-1.92433,.3507l-1.59388,3.01464c-.28237,.53407-.83695,.86818-1.44108,.86818h-3.20478c-.60412,0-1.15871-.33411-1.44108-.86818l-1.5939-3.01468c-.3774-.71381-1.32071-.887-1.92428-.35065C8.29374,9.41106,2,15.98341,2,20.7822c0,8.11449,8.05875,14.69221,18,14.69221s18-6.57772,18-14.69221c0-4.79881-6.2938-11.37146-11.43844-15.94274Z" style="fill:#ffb72d;"/><path d="M37.69436,18.83266l-3.38329,1.72463c-.78332,.39924-.78332,1.51836,0,1.91761l3.20772,1.63502c.30434-1.07085,.48121-2.18132,.48121-3.32773,0-.62239-.11007-1.2757-.30564-1.94954Z"/><path d="M2.30564,18.83266l3.38329,1.72463c.78332,.39924,.78332,1.51836,0,1.91761l-3.20772,1.63502c-.30434-1.07085-.48121-2.18132-.48121-3.32773,0-.62239,.11007-1.2757,.30564-1.94954Z"/></g><path d="M19.10047,18.7802h1.79906c.88139,0,1.35192,.82374,.77073,1.34928l-.89953,.81338c-.40836,.36925-1.13309,.36925-1.54145,0l-.89953-.81338c-.5812-.52553-.11066-1.34928,.77073-1.34928Z" style="fill:#ff5e01;"/><g><g><path id="SVGID-2" d="M11.95969,22.45645c-.99878,0-1.46094,.74798-1.26333,1.55509,.87467,3.57258,4.70393,6.26261,9.29532,6.26261s8.42065-2.69002,9.29532-6.26261c.1976-.80711-.06192-1.47563-1.0607-1.47563l-16.26661-.07946Z" style="fill:#ff6d00;"/><path d="M28.22629,22.53591c-1.72702,1.29354-4.70157,2.14759-8.0814,2.14759-3.44857,0-6.4752-.88914-8.18521-2.22705l16.26661,.07946Z" style="fill:#fff;"/></g><g><path d="M14.88336,20.15868c.23927,.15808,.54826,.15808,.78753,0,.75962-.50188,2.41516-1.7011,3.12773-3.04304,.94011-1.77043-.16397-3.53633-1.62276-3.53633-.83168,0-1.33221,.43452-1.60884,.80811-.14581,.19691-.43397,.19691-.57978,0-.27664-.37359-.77716-.80811-1.60884-.80811-1.45879,0-2.56287,1.76591-1.62276,3.53633,.71258,1.34194,2.36811,2.54116,3.12773,3.04304Z" style="fill:#f5172b;"/><path d="M25.11664,20.15868c-.23927,.15808-.54826,.15808-.78753,0-.75962-.50188-2.41516-1.7011-3.12773-3.04304-.94011-1.77043,.16397-3.53633,1.62276-3.53633,.83168,0,1.33221,.43452,1.60884,.80811,.14581,.19691,.43397,.19691,.57978,0,.27664-.37359,.77716-.80811,1.60884-.80811,1.45879,0,2.56287,1.76591,1.62276,3.53633-.71258,1.34194-2.36811,2.54116-3.12773,3.04304Z" style="fill:#f5172b;"/></g></g></g><rect width="40" height="40" style="fill:none;"/></svg>

<svg id="Layer_1" data-name="Layer 1" xmlns="http://www.w3.org/2000/svg" viewBox="0 0 40 40"><defs><style>.cls-1{fill:#ffb72d;}.cls-2{fill:#ff5e01;}.cls-3{fill:#ff6d00;}.cls-4{fill:#fff;}.cls-5{fill:#f5172b;}.cls-6{fill:none;}</style></defs><path id="SVGID" class="cls-1" d="M26.562,4.839a1.243,1.243,0,0,0-1.925.351L23.043,8.205a1.63,1.63,0,0,1-1.441.868H18.4a1.631,1.631,0,0,1-1.441-.868L15.363,5.19a1.243,1.243,0,0,0-1.925-.351C8.294,9.411,2,15.983,2,20.782,2,28.9,10.059,35.474,20,35.474S38,28.9,38,20.782C38,15.983,31.706,9.411,26.562,4.839Z"/><path d="M37.694,18.833l-3.383,1.724a1.077,1.077,0,0,0,0,1.918l3.208,1.635A12.148,12.148,0,0,0,38,20.782,7.02,7.02,0,0,0,37.694,18.833Z"/><path d="M2.306,18.833l3.383,1.724a1.077,1.077,0,0,1,0,1.918L2.481,24.11A12.148,12.148,0,0,1,2,20.782,7.02,7.02,0,0,1,2.306,18.833Z"/><path class="cls-2" d="M19.1,18.78h1.8c.881,0,1.351.824.77,1.349l-.9.814a1.212,1.212,0,0,1-1.542,0l-.9-.814C17.749,19.6,18.219,18.78,19.1,18.78Z"/><path id="SVGID-2" data-name="SVGID" class="cls-3" d="M11.96,22.456A1.2,1.2,0,0,0,10.7,24.012c.875,3.572,4.7,6.262,9.3,6.262s8.42-2.69,9.295-6.262c.2-.808-.062-1.476-1.061-1.476Z"/><path class="cls-4" d="M28.226,22.536a14.063,14.063,0,0,1-8.081,2.148c-3.449,0-6.475-.89-8.185-2.228Z"/><path class="cls-5" d="M14.883,20.159a.714.714,0,0,0,.788,0A10.03,10.03,0,0,0,18.8,17.116c.94-1.771-.164-3.537-1.623-3.537a1.934,1.934,0,0,0-1.609.808.358.358,0,0,1-.58,0,1.932,1.932,0,0,0-1.609-.808c-1.458,0-2.562,1.766-1.622,3.537A10.028,10.028,0,0,0,14.883,20.159Z"/><path class="cls-5" d="M25.117,20.159a.714.714,0,0,1-.788,0A10.03,10.03,0,0,1,21.2,17.116c-.94-1.771.164-3.537,1.623-3.537a1.934,1.934,0,0,1,1.609.808.358.358,0,0,0,.58,0,1.932,1.932,0,0,1,1.609-.808c1.458,0,2.562,1.766,1.622,3.537A10.028,10.028,0,0,1,25.117,20.159Z"/><rect class="cls-6" width="40" height="40"/></svg>
